X:448
T:Astley’s Flag. RH.449
T:Ashley’s Flag. RH.449
R:.hornpipe
S:Rev.R.Harrison’s MS,c1815,Cumbria
O:England
A:Temple Sowerby,Cumbria
Z:vmp.Simon Wilson. Review PJH, 2008.
M:C|
L:1/8
Q:1/2=90
K:C
ef|g2ec f2d>B|c2c2 c3G|(Ac)(Gc) (Ac)(Gc)|defd cBAG|!
g2e>c f2d>B|c2c’2 c’2ab|(c’bag) ^fgaf|g2g2 g2:|!
|:e>f|(gfed) ^cbag|f2d2 d2de|(fedc) Bagf|e2c2 c3B|!
A2c’2 G2b2|F2a2 E2g2|fedc BdGB|c2c2 c2:|

